X:1
T:Quebeck
T:D Major         Hezekiah Moors, 1809
T:Transcribed from Province Harmony , 1809; Counter by B. C. Johnston, 2018.
T:Isaac Watts, 1709 (Hymn 36, Book 2)           66. 86. (S. M.)
%%score [ 1 2 3 4 ]
L:1/8
Q:1/4=100
M:2/2
K:F
V:1 treble nm="Tr." snm="Tr."
V:2 treble nm="C." snm="C."
V:3 treble-8 nm="T." snm="T."
V:4 bass nm="B." snm="B."
V:1
"_How jarring and       how    low              Are  all  the notes   we             sing:                      Sweet Sa  –  vior,     tune  our   songs   a  –" d4 A2 f2 | %1
 (f e3) d4 | (d ^c7) | ^c4 d2 e2 | f4 (f e3) | d8 |:[K:D][M:2/4] z2 d2 | AG FE | DE F2 | dB A2 | %10
"_–new, And  they  shall  please  the  King.     Sweet  Sa – vior,    tune    our      songs    a  –  new,   And   they   shall    please    the    King." A3 F | %11
 GE BG | F2 B2 | A4 | z2 d2 | dA df | fe d[ce] | fe dc | d3 c | BA FB | AG FE | F4 :| %22
V:2
"_How jarring and       how    low              Are  all  the notes   we             sing:                      Sweet Sa  –  vior,     tune  our   songs   a  –" A4 A2 d2 | %1
 (d ^c3) d4 | (d ^c7) | A4 F2 E2 | F4 A4 | A8 |:[K:D][M:2/4] z2 A2 | AB AG | AG A2 | B2 A2 | %10
"_–new, And  they  shall  please  the  King.     Sweet  Sa – vior,    tune    our      songs    a  –  new,   And   they   shall    please    the    King." A3 A | %11
 BG EG | F2 ^G2 | A4 | z2 A2 | FA F2 | AG Ac | AG FE | F3 G | BA FG | AG AG | F4 :| %22
V:3
"_How jarring and       how    low              Are  all  the notes   we             sing:                      Sweet Sa  –  vior,     tune  our   songs   a  –" A4 d2 d2 | %1
 (d ^c3) d4 | (d e7) | e4 f2 e2 | d4 (d ^c3) | d8 |:[K:D][M:2/4] z2 d2 | AB AG | FG A2 | Bg fe | %10
"_–new, And  they  shall  please  the  King.     Sweet  Sa – vior,    tune    our      songs    a  –  new,   And   they   shall    please    the    King." d3 A | %11
 BG EB | A2 ^G2 | A4 | z2 d2 | fd fa | ag fe | ag fe | f3 e | d2 Ag | fe dc | d4 :| %22
V:4
 D,4 D,2 D,2 | A,,4 D,4 | A,8 | A,4 D2 A,2 | (F,2 G,2) A,4 | D,8 |:[K:D][M:2/4] z2 D,2 | D,2 D,2 | %8
 D,2 D,2 | G,2 A,2 | D,3 D, | G,2 [E,G,]2 | D,2 E,2 | A,,4 | %14
 z2"________________________________________________\nEdited by B. C. Johnston, 2018\n   1. Grace eighth-notes replaced with normal eighth-notes in measures 2, 3, and 5 in \nTreble\n and \nTenor\n.\n   2. Measure 14 was two quarter notes, the first with \nfermata\n; replaced by a half note, quarter rest, and a quarter note.\n   3. Counter paart written." D2 | %15
 D,2 D2 | A,2 A,2 | A,2 A,2 | D3 A, | D,2 F,G, | A,2 A,,2 | D,4 :| %22

